X:1
T:Kiss Me My Love and Welcome
M:2/4
L:1/8
R:Country Dance
S:Thomas Hardy music manuscripts
K:A
e2 cA|d2 Bd|c2 ac|BA E2|e2 cA dfaf|
edcB A2A2::cece|dfdf|ceaf|
e2 cA|cece|dfdf|edcB|A2A2||

